app/images/dist/call-calling.svg

<svg width="48" height="48" fill="none" xmlns="http://www.w3.org/2000/svg"><path d="M43.94 36.66c0 .72-.16 1.46-.5 2.18-.34.72-.78 1.4-1.36 2.04-.98 1.08-2.06 1.86-3.28 2.36-1.2.5-2.5.76-3.9.76-2.04 0-4.22-.48-6.52-1.46s-4.6-2.3-6.88-3.96a57.5 57.5 0 0 1-6.56-5.6 56.828 56.828 0 0 1-5.58-6.54c-1.64-2.28-2.96-4.56-3.92-6.82C4.48 17.34 4 15.16 4 13.08c0-1.36.24-2.66.72-3.86C5.2 8 5.96 6.88 7.02 5.88 8.3 4.62 9.7 4 11.18 4c.56 0 1.12.12 1.62.36.52.24.98.6 1.34 1.12l4.64 6.54c.36.5.62.96.8 1.4.18.42.28.84.28 1.22 0 .48-.14.96-.42 1.42-.26.46-.64.94-1.12 1.42l-1.52 1.58c-.22.22-.32.48-.32.8 0 .16.02.3.06.46.06.16.12.28.16.4.36.66.98 1.52 1.86 2.56.9 1.04 1.86 2.1 2.9 3.16 1.08 1.06 2.12 2.04 3.18 2.94 1.04.88 1.9 1.48 2.58 1.84.1.04.22.1.36.16.16.06.32.08.5.08.34 0 .6-.12.82-.34l1.52-1.5c.5-.5.98-.88 1.44-1.12.46-.28.92-.42 1.42-.42.38 0 .78.08 1.22.26.44.18.9.44 1.4.78l6.62 4.7c.52.36.88.78 1.1 1.28.2.5.32 1 .32 1.56Z" stroke="#DC143C" stroke-width="1.5" stroke-miterlimit="10"/><path d="M37 18c0-1.2-.94-3.04-2.34-4.54C33.38 12.08 31.68 11 30 11m14 7c0-7.74-6.26-14-14-14" stroke="#DC143C" stroke-width="1.5" stroke-linecap="round" stroke-linejoin="round"/></svg>

<svg width="48" height="48" viewBox="0 0 48 48" fill="none" xmlns="http://www.w3.org/2000/svg">
<path d="M43.94 36.66C43.94 37.38 43.78 38.12 43.44 38.84C43.1 39.56 42.66 40.24 42.08 40.88C41.1 41.96 40.02 42.74 38.8 43.24C37.6 43.74 36.3 44 34.9 44C32.86 44 30.68 43.52 28.38 42.54C26.08 41.56 23.78 40.24 21.5 38.58C19.2 36.9 17.02 35.04 14.94 32.98C12.88 30.9 11.02 28.72 9.36 26.44C7.72 24.16 6.4 21.88 5.44 19.62C4.48 17.34 4 15.16 4 13.08C4 11.72 4.24 10.42 4.72 9.22C5.2 8 5.96 6.88 7.02 5.88C8.3 4.62 9.7 4 11.18 4C11.74 4 12.3 4.12 12.8 4.36C13.32 4.6 13.78 4.96 14.14 5.48L18.78 12.02C19.14 12.52 19.4 12.98 19.58 13.42C19.76 13.84 19.86 14.26 19.86 14.64C19.86 15.12 19.72 15.6 19.44 16.06C19.18 16.52 18.8 17 18.32 17.48L16.8 19.06C16.58 19.28 16.48 19.54 16.48 19.86C16.48 20.02 16.5 20.16 16.54 20.32C16.6 20.48 16.66 20.6 16.7 20.72C17.06 21.38 17.68 22.24 18.56 23.28C19.46 24.32 20.42 25.38 21.46 26.44C22.54 27.5 23.58 28.48 24.64 29.38C25.68 30.26 26.54 30.86 27.22 31.22C27.32 31.26 27.44 31.32 27.58 31.38C27.74 31.44 27.9 31.46 28.08 31.46C28.42 31.46 28.68 31.34 28.9 31.12L30.42 29.62C30.92 29.12 31.4 28.74 31.86 28.5C32.32 28.22 32.78 28.08 33.28 28.08C33.66 28.08 34.06 28.16 34.5 28.34C34.94 28.52 35.4 28.78 35.9 29.12L42.52 33.82C43.04 34.18 43.4 34.6 43.62 35.1C43.82 35.6 43.94 36.1 43.94 36.66Z" stroke="#DC143C" stroke-width="1.5" stroke-miterlimit="10"/>
<path d="M37 18C37 16.8 36.06 14.96 34.66 13.46C33.38 12.08 31.68 11 30 11" stroke="#DC143C" stroke-width="1.5" stroke-linecap="round" stroke-linejoin="round"/>
<path d="M44 18C44 10.26 37.74 4 30 4" stroke="#DC143C" stroke-width="1.5" stroke-linecap="round" stroke-linejoin="round"/>
</svg>
